styles/3/Numix/48/places/default-user-desktop.svg

<!-- Created with Inkscape (http://www.inkscape.org/) -->
<svg xmlns="http://www.w3.org/2000/svg" viewBox="0 0 48 48">
 <g transform="translate(0,-1004.3622)">
  <rect width="38" height="15" x="5" y="1014.36" style="fill:#ea9036;fill-opacity:1;stroke:none"/>
  <path d="m 10 1016.36 c 0 -2 0 -4 2 -4 l 7 0 c 2 0 2 2 2 4 z" style="fill:#ea9036;fill-opacity:1;stroke:none"/>
  <path d="m 9 1017.36 31 0 0 7 -31 0 z" style="fill:#95989f;fill-opacity:1;stroke:none"/>
  <rect y="1016.36" x="11" height="20" width="28" style="fill:#d8d8da;fill-opacity:1;stroke:none"/>
  <rect width="28" height="20" x="10" y="1019.36" style="fill:#f9f9f9;fill-opacity:1;stroke:none"/>
  <path d="m 2 1020.36 44 0 -4 24 -37 0 z" style="fill:#f2bb64;fill-opacity:1;stroke:none"/>
  <path d="m 18 20 c -1.108 0 -2 0.892 -2 2 l 0 9 c 0 1.108 0.892 2 2 2 l 4 0 l -2 2 c -1 1 -1 1 0 1 l 8 0 c 1 0 1 0 0 -1 l -2 -2 l 4 0 c 1.108 0 2 -0.892 2 -2 l 0 -9 c 0 -1.108 -0.892 -2 -2 -2 l -12 0 z m 0 2 l 12 0 l 0 9 l -12 0 l 0 -9 z m 2.844 1 c -0.281 0.047 -0.844 0.25 -0.844 1 l 0 5 c 0 1 1 1 1 1 l 4 0 c 1 0 1 -1 1 -1 l 0 -4 l -2 -2 l -3 0 c 0 0 -0.062 -0.016 -0.156 0 z m 0.156 1 l 2 0 l 0 2 l 2 0 l 0 3 l -4 0 l 0 -5 z" transform="translate(0,1004.3622)" style="fill:#b58c4b;opacity:1;fill-opacity:1"/>
 </g>
</svg>

<?xml version="1.0" encoding="UTF-8" standalone="no"?>
<!-- Created with Inkscape (http://www.inkscape.org/) -->

<svg
   xmlns:dc="http://purl.org/dc/elements/1.1/"
   xmlns:cc="http://creativecommons.org/ns#"
   xmlns:rdf="http://www.w3.org/1999/02/22-rdf-syntax-ns#"
   xmlns:svg="http://www.w3.org/2000/svg"
   xmlns="http://www.w3.org/2000/svg"
   xmlns:sodipodi="http://sodipodi.sourceforge.net/DTD/sodipodi-0.dtd"
   xmlns:inkscape="http://www.inkscape.org/namespaces/inkscape"
   width="48"
   height="48"
   id="svg2"
   version="1.1"
   inkscape:version="0.91 r"
   sodipodi:docname="default-user-desktop.svg"
   inkscape:export-filename="/home/me4oslav/Desktop/folder.png"
   inkscape:export-xdpi="270"
   inkscape:export-ydpi="270">
  <defs
     id="defs4" />
  <sodipodi:namedview
     id="base"
     pagecolor="#ffffff"
     bordercolor="#666666"
     borderopacity="1.0"
     inkscape:pageopacity="0.0"
     inkscape:pageshadow="2"
     inkscape:zoom="10.451038"
     inkscape:cx="12.541953"
     inkscape:cy="18.024764"
     inkscape:document-units="px"
     inkscape:current-layer="layer1"
     showgrid="true"
     inkscape:window-width="1280"
     inkscape:window-height="998"
     inkscape:window-x="0"
     inkscape:window-y="0"
     inkscape:window-maximized="1"
     showguides="true"
     inkscape:guide-bbox="true">
    <inkscape:grid
       type="xygrid"
       id="grid2985"
       empspacing="5"
       visible="true"
       enabled="true"
       snapvisiblegridlinesonly="true" />
  </sodipodi:namedview>
  <metadata
     id="metadata7">
    <rdf:RDF>
      <cc:Work
         rdf:about="">
        <dc:format>image/svg+xml</dc:format>
        <dc:type
           rdf:resource="http://purl.org/dc/dcmitype/StillImage" />
        <dc:title />
      </cc:Work>
    </rdf:RDF>
  </metadata>
  <g
     inkscape:label="Layer 1"
     inkscape:groupmode="layer"
     id="layer1"
     transform="translate(0,-1004.3622)">
    <rect
       style="fill:#ea9036;fill-opacity:1;stroke:none"
       id="rect3757"
       width="38"
       height="15"
       x="5"
       y="1014.3622" />
    <path
       style="fill:#ea9036;fill-opacity:1;stroke:none"
       d="m 10,1016.3622 c 0,-2 0,-4 2,-4 l 7,0 c 2,0 2,2 2,4 z"
       id="path3759"
       inkscape:connector-curvature="0"
       sodipodi:nodetypes="ccccc" />
    <path
       style="fill:#95989f;fill-opacity:1;stroke:none"
       d="m 9,1017.3622 31,0 0,7 -31,0 z"
       id="path3765"
       inkscape:connector-curvature="0" />
    <rect
       y="1016.3622"
       x="11"
       height="20"
       width="28"
       id="rect3763"
       style="fill:#d8d8da;fill-opacity:1;stroke:none" />
    <rect
       style="fill:#f9f9f9;fill-opacity:1;stroke:none"
       id="rect3761"
       width="28"
       height="20"
       x="10"
       y="1019.3622" />
    <path
       style="fill:#f2bb64;fill-opacity:1;stroke:none"
       d="m 2,1020.3622 44,0 -4,24 -37,0 z"
       id="path2987"
       inkscape:connector-curvature="0"
       sodipodi:nodetypes="ccccc" />
    <path
       style="opacity:1.0;fill:#b58c4b;fill-opacity:1"
       d="M 18 20 C 16.892 20 16 20.892 16 22 L 16 31 C 16 32.108 16.892 33 18 33 L 22 33 L 20 35 C 19 36 19 36 20 36 L 28 36 C 29 36 29 36 28 35 L 26 33 L 30 33 C 31.108 33 32 32.108 32 31 L 32 22 C 32 20.892 31.108 20 30 20 L 18 20 z M 18 22 L 30 22 L 30 31 L 18 31 L 18 22 z M 20.84375 23 C 20.562434 23.046875 19.99997 23.25 20 24 L 20 29 C 20.00004 30 21 30 21 30 L 25 30 C 26 30 26 29 26 29 L 26 25 L 24 23 L 21 23 C 21 23 20.937522 22.984375 20.84375 23 z M 21 24 L 23 24 L 23 26 L 25 26 L 25 29 L 21 29 L 21 24 z "
       transform="translate(0,1004.3622)"
       id="path8" />
  </g>
</svg>
